src/icons/main-share.svg

<?xml version="1.0" encoding="UTF-8"?>
<svg width="14px" height="14px" viewBox="0 0 14 14" version="1.1" xmlns="http://www.w3.org/2000/svg" xmlns:xlink="http://www.w3.org/1999/xlink">
    <!-- Generator: Sketch 59 (86127) - https://sketch.com -->
    <title>HDL/Icon/Standard/share</title>
    <desc>Created with Sketch.</desc>
    <g id="Colors" stroke="none" stroke-width="1" fill="none" fill-rule="evenodd">
        <g id="Main-Icons" transform="translate(-122.000000, -970.000000)" fill="#4D5969">
            <g id="Share" transform="translate(101.000000, 952.000000)">
                <g id="HDL/Icon/Standard/share" transform="translate(21.000000, 18.000000)">
                    <path d="M10.5,12.6 L1.4,12.6 L1.4,3.5 L7.532,3.5 L8.932,2.1 L0.7,2.1 C0.315,2.1 0,2.415 0,2.8 L0,13.3 C0,13.685 0.315,14 0.7,14 L11.2,14 C11.585,14 11.9,13.685 11.9,13.3 L11.9,5.068 L10.5,6.468 L10.5,12.6 Z M13.3,0 L8.4,0 C8.015,0 7.7,0.315 7.7,0.7 C7.7,1.085 8.015,1.4 8.4,1.4 L11.613,1.4 L6.503,6.503 C6.377,6.629 6.3,6.804 6.3,7 C6.3,7.385 6.615,7.7 7,7.7 C7.196,7.7 7.371,7.623 7.497,7.497 L12.6,2.387 L12.6,5.6 C12.6,5.985 12.915,6.3 13.3,6.3 C13.685,6.3 14,5.985 14,5.6 L14,0.7 C14,0.315 13.685,0 13.3,0 Z" id="Shape"></path>
                </g>
            </g>
        </g>
    </g>
</svg>

<?xml version="1.0" encoding="utf-8"?>
<!-- Generator: Adobe Illustrator 20.1.0, SVG Export Plug-In . SVG Version: 6.00 Build 0)  -->
<svg version="1.1" id="Layer_1" xmlns="http://www.w3.org/2000/svg" xmlns:xlink="http://www.w3.org/1999/xlink" x="0px" y="0px"
	 viewBox="0 0 14 14" style="enable-background:new 0 0 14 14;" xml:space="preserve">
<style type="text/css">
	.st0{fill:#4D5969;}
</style>
<title>HDL/Icon/Standard/share</title>
<desc>Created with Sketch.</desc>
<g id="Colors">
	<g id="Main-Icons" transform="translate(-122.000000, -970.000000)">
		<g id="Share" transform="translate(101.000000, 952.000000)">
			<g id="HDL_x2F_Icon_x2F_Standard_x2F_share" transform="translate(21.000000, 18.000000)">
				<path id="Shape" class="st0" d="M10.5,12.6H1.4V3.5h6.1l1.4-1.4H0.7C0.3,2.1,0,2.4,0,2.8v10.5C0,13.7,0.3,14,0.7,14h10.5
					c0.4,0,0.7-0.3,0.7-0.7V5.1l-1.4,1.4V12.6z M13.3,0H8.4C8,0,7.7,0.3,7.7,0.7S8,1.4,8.4,1.4h3.2L6.5,6.5C6.4,6.6,6.3,6.8,6.3,7
					c0,0.4,0.3,0.7,0.7,0.7c0.2,0,0.4-0.1,0.5-0.2l5.1-5.1v3.2c0,0.4,0.3,0.7,0.7,0.7S14,6,14,5.6V0.7C14,0.3,13.7,0,13.3,0z"/>
			</g>
		</g>
	</g>
</g>
</svg>
